X:1
T:Title
%%score { 1 | 2 }
L:1/8
M:3/4
K:G
V:1 treble nm="Grand Piano"
V:2 bass 
V:1
 z2 z2[Q:1/4=72] D2 | B>_B =B2 D2 | [Fc]>[=FB] [^Fc]2 D2 | A3 ^G A_B |[M:2/4] B4 |[M:1/4] D2 | %6
[M:3/4] B>_B =B2 [=Fd]2 | [Ed]>[E^c] [E=c]2 [Ec]2 | B>_B =B2 A2 |[M:2/4] [B,G]4 |[M:1/4] [DB]2 | %11
[M:3/4] [CA]>[B,G] [B,G]3 [B,A] | [B,G]>F F2 D2 | c3 [Ec] [Fc][Ac] |[M:2/4] [GB]4 |[M:1/4] [DB]2 | %16
[M:3/4] [CA]>[B,G] [B,G]2 [DB][=Fd] | [Ed]>[E^c] [E=c]2 E2 | DB A3 G |[M:2/4] [B,G]4 |] %20
V:2
 z2 z2 [G,B,]2 | [G,D]>[G,^C] [G,D]2 [G,B,]2 | [D,A,]>[D,^G,] [D,A,]2 [D,F,]2 | %3
 [D,F,C]3 [D,=F,B,] [D,^F,C][D,F,^C] |[M:2/4] [G,D]4 |[M:1/4] [G,B,]2 | %6
[M:3/4] [G,D]>[G,^C] [G,D]2 [B,,G,]2 | [C,G,]>[C,G,] [C,G,]2 [C,G,]2 | %8
 [D,G,D]>[E,G,^C] [D,G,D]2 [D,F,=C]2 |[M:2/4] [G,,G,]4 |[M:1/4] [G,,G,]2 | %11
[M:3/4] [G,,D,]>[G,,D,] [G,,D,]3 [G,,D,] | [A,,D,]>[D,A,C] [D,A,C]2 [D,F,]2 | %13
 [D,F,D]3 [D,G,] [D,A,][D,D] |[M:2/4] [G,D]4 |[M:1/4] [G,,G,]2 | %16
[M:3/4] [G,,G,]>[G,,D,] [G,,D,]2 [G,,G,][B,,G,] | [C,G,]>[C,G,] [C,G,]2 [C,G,C]2 | %18
 [D,G,B,][D,G,D] [D,F,C]3 [D,C] |[M:2/4] [G,,D,]4 |] %20

